X: 21944
T: Kitty Got A Clinking Coming From The Fair
R: hornpipe
M: 4/4
K: Gmajor
G<BB>G c>de>c|d>BG>A B<AA>D|G<BB>G c2 e>g|d>BG>B (3ABA (3AGF|
G<B B2 c>Ge>G|d>GD>A B<A A2|c2 c>B c>e (3gfe|d>B (3GAB (3 ABA G2||
G2 B>d g2 g>d|e>d (3Bcd d<e g2|G2 B>d g2- g>d|(3gfe d>B A2 G>D|
(3GAG (3Bcd g>Gg>e|e>dB>d d<eg<a|b>ga>f (3gfe d>B|(3gfe d>B (3ABA G||
BG ~G2 c3 e|dBGA BA{B/}AG|GB ~B2 cege|dBGB (3ABA G2|
GB ~B2 cd{a/}ed|.dBGA BA{B/}AG|.c2 {d/}cB ce{a/}ge|dBGB (3 ABA G2||
{A/}G2 Bd .g2 {a/}ge|{a/}edB.d .de {a/}g2|{A/}G2 Bd ~g3 d|(3.g.f.e dB (3ABA G2|
~G2 Bd .g2 {a/}ge|{a/}edBd dega|(3bag af (3.g.f.e fd|(3.g.f.e dB (3ABA G2||

